static/images/reddit.svg

<svg width="64"
     height="64"
     viewBox="0 0 64 64"
     fill="none"
     xmlns="http://www.w3.org/2000/svg">
  <g clip-path="url(#clip0)">
    <path d="M60.4119 23.942C56.6579 21.615 51.4719 24.19 51.2249 24.19C50.9779 24.19 47.5699 21.912 45.1009 20.675C42.6339 19.437 36.5589 19.239 36.3109 19.14C36.0649 19.04 39.1769 10.624 39.3739 10.08C39.5719 9.53396 41.9919 10.92 41.9919 10.92C42.7819 12.802 43.9189 14.882 46.6359 15.872C49.3519 16.862 54.0939 15.179 55.3289 11.912C56.5639 8.64196 55.9709 4.03896 51.3789 2.45396C46.7869 0.86896 42.3389 3.93896 42.3389 3.93896C42.3389 3.93896 37.1539 2.10496 35.9689 2.05596C34.7839 2.00596 33.5489 4.28396 32.0669 6.61096C30.5849 8.93796 25.5469 21.167 25.5469 21.167C22.4369 21.315 16.5099 22.997 16.5099 22.997C14.8799 20.967 10.6819 20.72 8.80495 21.017C6.92795 21.314 0.602945 23.3 0.0599454 28.498C-0.483055 33.696 2.97395 35.528 2.97395 35.528C2.97395 35.528 2.38095 37.311 2.33195 39.588C2.28195 41.868 3.12195 46.323 4.55495 48.996C5.98695 51.67 11.5679 55.878 19.4709 59.344C27.3739 62.81 33.8449 62.216 38.5869 61.274C43.3269 60.334 46.0939 60.087 52.8109 54.194C59.5269 48.304 60.5149 39.391 60.5149 39.391C60.5149 39.391 63.8729 34.738 63.9719 32.659C64.0699 30.579 64.1689 26.271 60.4149 23.944L60.4119 23.942ZM45.6569 8.37196C46.1389 8.37196 46.3969 7.66496 47.4719 7.03396C48.5469 6.40296 49.9539 6.73696 50.0649 6.69996C50.1749 6.66296 50.3979 6.40296 50.2499 5.69696C50.1019 4.99096 48.7299 4.80696 47.5099 5.25096C46.2869 5.69896 45.0529 6.51096 44.8419 7.14696C44.6569 7.70396 45.1759 8.37296 45.6569 8.37296V8.37196Z"
          fill="#FF4304" />
    <path d="M60.4119 23.942C56.6579 21.615 51.4719 24.19 51.2249 24.19C50.9779 24.19 47.5699 21.912 45.1009 20.675C42.6339 19.437 36.5589 19.239 36.3109 19.14C36.0649 19.04 39.1769 10.624 39.3739 10.08C39.5719 9.53396 41.9919 10.92 41.9919 10.92C42.7819 12.802 43.9189 14.882 46.6359 15.872C49.3519 16.862 54.0939 15.179 55.3289 11.912C56.5639 8.64196 55.9709 4.03896 51.3789 2.45396C46.7869 0.86896 42.3389 3.93896 42.3389 3.93896C42.3389 3.93896 37.1539 2.10496 35.9689 2.05596C34.7839 2.00596 33.5489 4.28396 32.0669 6.61096C30.5849 8.93796 25.5469 21.167 25.5469 21.167C22.4369 21.315 16.5099 22.997 16.5099 22.997C14.8799 20.967 10.6819 20.72 8.80495 21.017C6.92795 21.314 0.602945 23.3 0.0599454 28.498C-0.483055 33.696 2.97395 35.528 2.97395 35.528C2.97395 35.528 2.38095 37.311 2.33195 39.588C2.28195 41.868 3.12195 46.323 4.55495 48.996C5.98695 51.67 11.5679 55.878 19.4709 59.344C27.3739 62.81 33.8449 62.216 38.5869 61.274C43.3269 60.334 46.0939 60.087 52.8109 54.194C59.5269 48.304 60.5149 39.391 60.5149 39.391C60.5149 39.391 63.8729 34.738 63.9719 32.659C64.0699 30.579 64.1689 26.271 60.4149 23.944L60.4119 23.942ZM61.8449 30.872C61.5489 31.566 60.3629 34.042 59.3749 34.636C58.3879 35.23 57.9929 35.329 57.9929 35.329C57.9929 35.329 51.2269 27.949 50.2879 27.999C49.3489 28.049 49.3979 29.139 49.7449 29.287C50.0909 29.437 57.4499 35.773 57.4499 35.773C57.4499 35.773 57.5499 38.298 57.3019 38.15C57.0549 38.003 50.7319 31.815 50.2389 31.864C49.7429 31.914 49.4489 32.804 49.6939 32.954C49.9389 33.104 56.8559 39.191 56.8559 39.191C56.8559 39.191 56.5599 40.479 56.2629 40.431C55.9669 40.381 50.0889 34.736 49.8429 34.786C49.5949 34.836 49.0529 35.826 49.2489 35.974C49.4449 36.122 55.9669 41.222 55.9189 41.569C55.8689 41.916 54.9289 43.649 54.8309 43.449C54.7309 43.252 49.1009 38.251 48.7069 38.399C48.3119 38.549 48.0649 39.489 48.3119 39.687C48.5589 39.885 54.3869 44.49 54.3869 44.687C54.3869 44.887 53.4489 46.124 53.2509 46.025C53.0529 45.925 48.5109 41.668 48.3609 41.668C48.2129 41.668 47.4229 42.411 47.5209 42.658C47.6209 42.906 52.3109 46.668 52.2609 46.866C52.2129 47.064 51.5209 48.45 51.1749 48.203C50.8289 47.956 49.0509 45.431 48.4589 45.629C47.8659 45.827 47.4219 46.322 47.5689 46.519C47.7189 46.719 50.5829 49.293 50.2859 49.491C49.9899 49.689 48.8539 50.729 48.6559 50.481C48.4579 50.233 46.4187 47.781 46.0717 47.88C45.7267 47.98 44.9367 48.524 45.2317 48.82C45.5287 49.118 47.5199 51.373 47.3719 51.423C47.2239 51.473 46.2359 52.759 45.6919 52.511C45.1479 52.263 43.5689 49.639 43.0749 49.788C42.5809 49.938 42.1849 50.333 42.2849 50.531C42.3849 50.729 44.8529 53.254 44.4579 53.601C44.0609 53.948 43.4179 54.591 43.1719 54.245C42.9249 53.898 40.5049 50.829 40.1589 50.829C39.8139 50.829 39.4189 51.522 39.4189 51.522C39.4189 51.522 42.0859 54.492 41.6889 54.839C41.2959 55.186 40.3089 55.285 40.1089 55.186C39.9129 55.086 37.6389 52.066 37.1969 52.066C36.7509 52.066 36.1089 52.562 36.2069 52.909C36.3069 53.256 39.0229 55.434 38.6269 55.632C38.2329 55.829 37.1469 56.472 36.8009 55.928C36.4549 55.383 34.2329 53.008 33.8869 53.056C33.5409 53.106 33.1949 53.799 33.1949 53.799C33.1949 53.799 35.1209 55.879 34.8749 55.979C34.6269 56.077 33.0469 56.226 32.9479 56.027C32.8479 55.829 31.0709 53.799 30.5779 53.799C30.0829 53.799 29.4899 54.492 29.7879 54.689C30.0829 54.889 31.6639 56.076 30.9229 56.324C30.1829 56.572 20.2549 55.977 14.7229 51.868C9.19095 47.758 5.98095 43.6 4.99295 41.322C4.00495 39.045 4.49895 36.074 4.59795 35.132C4.59795 35.132 1.88295 33.648 1.63595 30.776C1.38895 27.904 3.70995 24.884 4.79595 23.894C5.88395 22.904 10.2299 21.666 12.4519 22.954C14.6749 24.24 16.1069 24.686 16.3039 24.636C16.5019 24.586 17.6869 24.141 20.4039 23.546C23.1189 22.953 27.0709 22.606 27.2679 22.062C27.4659 21.517 31.5649 11.812 33.1949 8.44696C34.8249 5.07996 36.0599 3.54496 36.5549 3.69396C37.0479 3.84396 41.5419 5.77396 42.3329 5.42696C43.1229 5.07996 46.2829 3.14896 49.4929 3.74396C52.7029 4.33796 53.4449 5.57596 53.9389 6.76396C54.4349 7.95196 54.6329 9.18996 54.6329 9.18996C54.6329 9.18996 52.7559 6.56596 52.4099 7.05996C52.0649 7.55596 51.9169 7.25996 52.0649 7.55596C52.2129 7.85296 54.0899 10.726 54.0409 11.022C53.9909 11.319 53.6469 12.458 53.4989 12.26C53.3509 12.062 51.3749 8.74496 50.8319 8.74496C50.2899 8.74496 49.8949 9.04196 50.0419 9.38896C50.1919 9.73596 52.8579 13.003 52.6619 13.152C52.4659 13.301 51.4759 13.746 51.3269 13.647C51.1789 13.547 48.9569 10.627 48.6109 10.775C48.2639 10.925 47.3749 10.875 47.6209 11.27C47.8689 11.666 50.3379 14.092 50.0909 14.24C49.8439 14.39 49.0039 14.588 48.8559 14.39C48.7079 14.192 46.7819 11.518 46.4859 11.518C46.1889 11.518 45.3979 11.766 45.4959 11.914C45.5959 12.064 46.8309 14.291 46.6329 14.291C46.4359 14.291 45.2999 13.893 44.4109 12.408C43.5219 10.923 43.5709 9.23796 43.3239 8.89296C43.0779 8.54596 37.5459 6.21896 36.8539 6.51596C36.1639 6.81296 32.1639 19.736 32.5579 20.429C32.9529 21.121 34.0879 21.269 34.2879 21.269C34.4879 21.269 40.2139 20.279 44.1159 21.864C48.0179 23.448 50.4859 26.469 51.4259 26.221C52.3639 25.973 52.9079 25.181 54.0929 24.934C55.2769 24.686 58.3889 23.844 60.5629 25.677C62.7369 27.507 62.1429 30.179 61.8479 30.872H61.8449ZM8.79995 24.882C6.87395 25.132 5.14495 26.862 5.04595 27.31C4.94595 27.755 5.14595 28.2 5.53995 28.3C5.93495 28.398 6.92295 27.457 8.15795 26.913C9.39295 26.368 10.4779 26.913 11.4679 27.111C12.4579 27.309 12.8979 26.915 12.8009 26.221C12.7039 25.528 10.7279 24.637 8.80095 24.885L8.79995 24.882ZM11.3199 31.222C9.63995 32.012 8.25695 33.647 7.66395 35.082C7.07095 36.517 7.91095 37.757 8.50395 37.757C9.09695 37.757 8.94895 36.42 9.29395 35.331C9.63995 34.241 11.5659 33.104 12.1589 32.411C12.7489 31.717 11.9489 30.924 11.3189 31.221L11.3199 31.222ZM22.2269 39.8915C24.1114 39.7276 25.3812 38.7705 26.8152 37.4335C28.2452 36.0965 27.3887 31.7391 26.2595 30.3928C24.6439 28.8305 22.3595 28.1008 19.6895 29.0058C16.0335 30.2458 15.918 33.5007 16.2048 34.9345C16.4506 35.8768 16.9422 37.5564 18.0893 38.3757C19.2363 39.1951 20.3424 40.0554 22.2269 39.8915ZM20.5795 32.3728C21.3395 31.9698 23.3925 31.7288 24.4795 32.3228C25.5665 32.9168 26.0095 34.3028 24.8255 35.5908C23.6415 36.8788 20.5285 36.4808 20.0355 36.3828C19.5405 36.2828 17.8605 33.8088 20.5775 32.3728H20.5795ZM53.1019 26.865C52.2119 26.715 51.9649 27.41 51.9649 27.707C51.9649 28.004 57.6449 32.807 57.9909 33.104C58.3369 33.401 59.0779 33.748 59.0279 33.204C58.9779 32.658 53.7979 26.982 53.0999 26.864L53.1019 26.865ZM56.2619 25.875C55.5219 26.222 55.7679 26.965 55.8669 27.261C55.9649 27.557 56.3599 27.706 57.2489 27.854C58.1389 28.004 58.7309 29.636 58.9789 30.082C59.2249 30.53 59.8189 30.728 60.4089 30.232C60.9989 29.736 60.3109 28.5 59.4719 27.412C58.6329 26.324 57.0219 25.521 56.2619 25.875ZM43.1657 42.6795C41.9367 42.8433 39.269 44.8894 37.0505 45.552C34.1892 46.3233 30.666 46.5281 27.0246 45.5324C22.4727 43.5785 21.1208 41.8989 19.3592 42.2266C17.9664 42.8001 17.5029 43.9679 18.5399 45.5039C19.5028 46.6194 21.1208 48.3307 25.75 50.0922C29.0274 50.8706 33.3136 51.7813 37.6151 50.5523C42.6531 48.9683 43.6644 47.5741 45.2911 46.0775C45.8768 45.2966 46.0744 44.3591 45.7466 43.5398C45.4189 42.7204 44.3947 42.5156 43.1657 42.6795ZM39.7044 48.0533C36.5811 49.0944 35.7776 49.1804 31.4546 49.3911C27.7421 49.2004 26.2289 48.5498 24.3419 48.0943C22.5199 47.3134 20.8528 46.002 21.2432 45.091C21.7637 44.2451 23.4406 47.7665 31.5111 48.5859C35.4439 48.463 36.5016 48.4149 38.8441 47.4388C40.9263 46.723 42.5174 44.1568 43.038 44.8075C43.5585 45.4582 41.9167 47.2074 39.7044 48.0533ZM45.6569 8.37196C46.1389 8.37196 46.3969 7.66496 47.4719 7.03396C48.5469 6.40296 49.9539 6.73696 50.0649 6.69996C50.1749 6.66296 50.3979 6.40296 50.2499 5.69696C50.1019 4.99096 48.7299 4.80696 47.5099 5.25096C46.2869 5.69896 45.0529 6.51096 44.8419 7.14696C44.6569 7.70396 45.1759 8.37296 45.6569 8.37296V8.37196Z"
          fill="black" />
    <path d="M37.7494 37.5974C39.1834 38.9344 40.4532 39.8916 42.3377 40.0555C44.2222 40.2193 45.3283 39.359 46.4753 38.5397C47.6224 37.7203 48.114 36.0407 48.3598 35.0985C48.6466 33.6646 48.5311 30.4097 44.8751 29.1697C42.2051 28.2647 39.9207 28.9944 38.3051 30.5567C37.1759 31.9031 36.3194 36.2604 37.7494 37.5974Z"
          fill="black" />
    <path d="M5.0459 27.3099C5.1449 26.8619 6.8739 25.1319 8.7999 24.8819L8.8009 24.8849C10.7279 24.6369 12.7039 25.5279 12.8009 26.2209C12.8979 26.9149 12.4579 27.3089 11.4679 27.1109C10.4779 26.9129 9.3929 26.3679 8.1579 26.9129C6.9229 27.4569 5.9349 28.3979 5.5399 28.2999C5.1459 28.1999 4.9459 27.7549 5.0459 27.3099Z"
          fill="black" />
    <path d="M7.6639 35.0819C8.2569 33.6469 9.6399 32.0119 11.3199 31.2219L11.3189 31.2209C11.9489 30.9239 12.7489 31.7169 12.1589 32.4109C11.5659 33.1039 9.6399 34.2409 9.2939 35.3309C8.9489 36.4199 9.0969 37.7569 8.5039 37.7569C7.9109 37.7569 7.0709 36.5169 7.6639 35.0819Z"
          fill="black" />
    <circle cx="21.9242"
            cy="34.2483"
            r="4"
            fill="white" />
    <circle cx="42.5948"
            cy="34.2483"
            r="4"
            fill="white" />
    <path d="M21.5237 45.2405C24.8309 48.4444 35.9724 51.5657 42.2976 45.2405"
          stroke="white"
          stroke-width="2"
          stroke-linecap="round" />
  </g>
  <defs>
    <clipPath id="clip0">
      <rect width="64"
            height="64"
            fill="white" />
    </clipPath>
  </defs>
</svg>

<svg width="64" height="64" fill="none" xmlns="http://www.w3.org/2000/svg"><g clip-path="url(#clip0)"><path d="M60.412 23.942c-3.754-2.327-8.94.248-9.187.248-.247 0-3.655-2.278-6.124-3.515-2.467-1.238-8.542-1.436-8.79-1.535-.246-.1 2.866-8.516 3.063-9.06.198-.546 2.618.84 2.618.84.79 1.882 1.927 3.962 4.644 4.952 2.716.99 7.458-.693 8.693-3.96 1.235-3.27.642-7.873-3.95-9.458-4.592-1.585-9.04 1.485-9.04 1.485s-5.185-1.834-6.37-1.883c-1.185-.05-2.42 2.228-3.902 4.555-1.482 2.327-6.52 14.556-6.52 14.556-3.11.148-9.037 1.83-9.037 1.83-1.63-2.03-5.828-2.277-7.705-1.98C6.928 21.314.603 23.3.06 28.498c-.543 5.198 2.914 7.03 2.914 7.03s-.593 1.783-.642 4.06c-.05 2.28.79 6.735 2.223 9.408 1.432 2.674 7.013 6.882 14.916 10.348 7.903 3.466 14.374 2.872 19.116 1.93 4.74-.94 7.507-1.187 14.224-7.08 6.716-5.89 7.704-14.803 7.704-14.803s3.358-4.653 3.457-6.732c.098-2.08.197-6.388-3.557-8.715l-.003-.002zM45.657 8.372c.482 0 .74-.707 1.815-1.338 1.075-.631 2.482-.297 2.593-.334.11-.037.333-.297.185-1.003-.148-.706-1.52-.89-2.74-.446-1.223.448-2.457 1.26-2.668 1.896-.185.557.334 1.226.815 1.226v-.001z" fill="#FF4304"/><path d="M60.412 23.942c-3.754-2.327-8.94.248-9.187.248-.247 0-3.655-2.278-6.124-3.515-2.467-1.238-8.542-1.436-8.79-1.535-.246-.1 2.866-8.516 3.063-9.06.198-.546 2.618.84 2.618.84.79 1.882 1.927 3.962 4.644 4.952 2.716.99 7.458-.693 8.693-3.96 1.235-3.27.642-7.873-3.95-9.458-4.592-1.585-9.04 1.485-9.04 1.485s-5.185-1.834-6.37-1.883c-1.185-.05-2.42 2.228-3.902 4.555-1.482 2.327-6.52 14.556-6.52 14.556-3.11.148-9.037 1.83-9.037 1.83-1.63-2.03-5.828-2.277-7.705-1.98C6.928 21.314.603 23.3.06 28.498c-.543 5.198 2.914 7.03 2.914 7.03s-.593 1.783-.642 4.06c-.05 2.28.79 6.735 2.223 9.408 1.432 2.674 7.013 6.882 14.916 10.348 7.903 3.466 14.374 2.872 19.116 1.93 4.74-.94 7.507-1.187 14.224-7.08 6.716-5.89 7.704-14.803 7.704-14.803s3.358-4.653 3.457-6.732c.098-2.08.197-6.388-3.557-8.715l-.003-.002zm1.433 6.93c-.296.694-1.482 3.17-2.47 3.764-.987.594-1.382.693-1.382.693s-6.766-7.38-7.705-7.33c-.94.05-.89 1.14-.543 1.288.346.15 7.705 6.486 7.705 6.486s.1 2.525-.148 2.377c-.247-.147-6.57-6.335-7.063-6.286-.496.05-.79.94-.545 1.09.245.15 7.162 6.237 7.162 6.237s-.296 1.288-.593 1.24c-.296-.05-6.174-5.695-6.42-5.645-.248.05-.79 1.04-.594 1.188.196.148 6.718 5.248 6.67 5.595-.05.347-.99 2.08-1.088 1.88-.1-.197-5.73-5.198-6.124-5.05-.395.15-.642 1.09-.395 1.288.247.198 6.075 4.803 6.075 5 0 .2-.938 1.437-1.136 1.338-.198-.1-4.74-4.357-4.89-4.357-.148 0-.938.743-.84.99.1.248 4.79 4.01 4.74 4.208-.048.198-.74 1.584-1.086 1.337-.346-.247-2.124-2.772-2.716-2.574-.593.198-1.037.693-.89.89.15.2 3.014 2.774 2.717 2.972-.296.198-1.432 1.238-1.63.99-.198-.248-2.237-2.7-2.584-2.601-.345.1-1.135.644-.84.94.297.298 2.288 2.553 2.14 2.603-.148.05-1.136 1.336-1.68 1.088s-2.123-2.872-2.617-2.723c-.494.15-.89.545-.79.743.1.198 2.568 2.723 2.173 3.07-.397.347-1.04.99-1.286.644-.247-.347-2.667-3.416-3.013-3.416-.345 0-.74.693-.74.693s2.667 2.97 2.27 3.317c-.393.347-1.38.446-1.58.347-.196-.1-2.47-3.12-2.912-3.12-.446 0-1.088.496-.99.843.1.347 2.816 2.525 2.42 2.723-.394.197-1.48.84-1.826.296-.346-.545-2.568-2.92-2.914-2.872-.346.05-.692.743-.692.743s1.926 2.08 1.68 2.18c-.248.098-1.828.247-1.927.048-.1-.198-1.877-2.228-2.37-2.228-.495 0-1.088.693-.79.89.295.2 1.876 1.387 1.135 1.635-.74.248-10.668-.347-16.2-4.456-5.532-4.11-8.742-8.268-9.73-10.546-.988-2.277-.494-5.248-.395-6.19 0 0-2.715-1.484-2.962-4.356-.247-2.872 2.074-5.892 3.16-6.882 1.088-.99 5.434-2.228 7.656-.94 2.223 1.286 3.655 1.732 3.852 1.682.198-.05 1.383-.495 4.1-1.09 2.715-.593 6.667-.94 6.864-1.484.198-.545 4.297-10.25 5.927-13.615 1.63-3.367 2.865-4.902 3.36-4.753.493.15 4.987 2.08 5.778 1.733.79-.347 3.95-2.278 7.16-1.683 3.21.594 3.952 1.832 4.446 3.02.496 1.188.694 2.426.694 2.426s-1.877-2.624-2.223-2.13c-.345.496-.493.2-.345.496.148.297 2.025 3.17 1.976 3.466-.05.297-.394 1.436-.542 1.238-.148-.198-2.124-3.515-2.667-3.515-.542 0-.937.297-.79.644.15.347 2.816 3.614 2.62 3.763-.196.149-1.186.594-1.335.495-.148-.1-2.37-3.02-2.716-2.872-.347.15-1.236.1-.99.495.248.396 2.717 2.822 2.47 2.97-.247.15-1.087.348-1.235.15-.148-.198-2.074-2.872-2.37-2.872-.297 0-1.088.248-.99.396.1.15 1.335 2.377 1.137 2.377-.197 0-1.333-.398-2.222-1.883-.89-1.485-.84-3.17-1.087-3.515-.246-.347-5.778-2.674-6.47-2.377-.69.297-4.69 13.22-4.296 13.913.395.692 1.53.84 1.73.84.2 0 5.926-.99 9.828.595 3.902 1.584 6.37 4.605 7.31 4.357.938-.248 1.482-1.04 2.667-1.287 1.184-.248 4.296-1.09 6.47.743 2.174 1.83 1.58 4.502 1.285 5.195h-.003zM8.8 24.882c-1.926.25-3.655 1.98-3.754 2.428-.1.445.1.89.494.99.395.098 1.383-.843 2.618-1.387 1.235-.545 2.32 0 3.31.198.99.198 1.43-.196 1.333-.89-.097-.693-2.073-1.584-4-1.336l-.001-.003zm2.52 6.34c-1.68.79-3.063 2.425-3.656 3.86s.247 2.675.84 2.675.445-1.337.79-2.426c.346-1.09 2.272-2.227 2.865-2.92.59-.694-.21-1.487-.84-1.19v.001zm10.907 8.67c1.884-.164 3.154-1.122 4.588-2.459 1.43-1.337.574-5.694-.556-7.04-1.615-1.563-3.9-2.292-6.57-1.387-3.655 1.24-3.771 4.495-3.484 5.928.246.943.737 2.622 1.884 3.442 1.147.82 2.253 1.68 4.138 1.516zm-1.648-7.52c.76-.402 2.813-.643 3.9-.05 1.088.595 1.53 1.98.347 3.269-1.184 1.288-4.297.89-4.79.792-.495-.1-2.176-2.574.541-4.01h.002zm32.523-5.507c-.89-.15-1.137.545-1.137.842 0 .297 5.68 5.1 6.026 5.397.346.297 1.087.644 1.037.1-.05-.546-5.23-6.222-5.928-6.34l.002.001zm3.16-.99c-.74.347-.494 1.09-.395 1.386.098.296.493.445 1.382.593.89.15 1.482 1.782 1.73 2.228.246.448.84.646 1.43.15s-.098-1.732-.937-2.82c-.84-1.088-2.45-1.891-3.21-1.537zM43.166 42.679c-1.23.164-3.897 2.21-6.115 2.873a19.247 19.247 0 01-10.026-.02c-4.552-1.953-5.904-3.633-7.666-3.305-1.393.573-1.856 1.74-.82 3.277.964 1.115 2.582 2.827 7.211 4.588 3.277.779 7.564 1.69 11.865.46 5.038-1.584 6.05-2.978 7.676-4.474.586-.781.783-1.719.456-2.538-.328-.82-1.352-1.024-2.581-.86zm-3.462 5.374c-3.123 1.041-3.926 1.127-8.25 1.338-3.712-.19-5.225-.841-7.112-1.297-1.822-.78-3.49-2.092-3.099-3.003.52-.846 2.198 2.675 10.268 3.495 3.933-.123 4.99-.171 7.333-1.147 2.082-.716 3.673-3.282 4.194-2.632.52.651-1.121 2.4-3.334 3.246zm5.953-39.681c.482 0 .74-.707 1.815-1.338 1.075-.631 2.482-.297 2.593-.334.11-.037.333-.297.185-1.003-.148-.706-1.52-.89-2.74-.446-1.223.448-2.457 1.26-2.668 1.896-.185.557.334 1.226.815 1.226v-.001z" fill="#000"/><path d="M37.75 37.597c1.433 1.337 2.703 2.295 4.588 2.459 1.884.163 2.99-.697 4.137-1.516 1.147-.82 1.639-2.5 1.885-3.441.287-1.434.171-4.69-3.485-5.93-2.67-.904-4.954-.175-6.57 1.388-1.13 1.346-1.986 5.703-.556 7.04zM5.046 27.31c.099-.448 1.828-2.178 3.754-2.428v.003c1.928-.248 3.904.643 4 1.336.098.694-.342 1.088-1.332.89-.99-.198-2.075-.743-3.31-.198-1.235.544-2.223 1.485-2.618 1.387-.394-.1-.594-.545-.494-.99zM7.664 35.082c.593-1.435 1.976-3.07 3.656-3.86l-.001-.001c.63-.297 1.43.496.84 1.19-.593.693-2.52 1.83-2.865 2.92-.345 1.089-.197 2.426-.79 2.426s-1.433-1.24-.84-2.675z" fill="#000"/><circle cx="21.924" cy="34.248" r="4" fill="#fff"/><circle cx="42.595" cy="34.248" r="4" fill="#fff"/><path d="M21.524 45.24c3.307 3.204 14.448 6.326 20.774 0" stroke="#fff" stroke-width="2" stroke-linecap="round"/></g><defs><clipPath id="clip0"><path fill="#fff" d="M0 0h64v64H0z"/></clipPath></defs></svg>
